X: 591
M: 6/8
L: 1/8
K: D
V: 1
(F/G/)AA d2A | d>ed Tc2A | (B/c/d)B AFD | GEE E2G |\
(F/G/)AA d2A | d>ed Tc2A | (B/c/d)B AFd | AFD D2 :|
|: f/g/ |\
afd afd | efd Tc2A | (G/A/B)G (F/G/A)F | BGE E2f/g/ |\
afd afd | efd Tc2A | (B/c/d)B AFd | AFD D2 :|
V: 2 clef=bass middle=d
z |\
d3 d3 | d3 d3 | g3 f3 | e3 e3 |\
d3 d3 | d3 d3 | g3 a3 | d3 d2 :|\
|: z |\
d3 d3 | A3 A3 | d3 d3 | e3 e3 |\
d3 d3 | e3 f3 | g3 a3 | d3 d2 :|

